X:1
T:Petersburg, CMD
T:Petersburg, CMD
T:John Robson Sweney, 1884
T:Public Domain Courtesy of the Cyber Hymnal™
C:John Robson Sweney, 1884
Z:Public Domain
Z:Courtesy of the Cyber Hymnal™
%%score ( 1 2 ) ( 3 4 )
L:1/8
Q:1/4=100
M:6/8
K:C
V:1 treble 
V:2 treble 
V:3 bass 
V:4 bass 
V:1
 [EG] | [EG]2 [EG] [FA]2 [EG] | [^D^F]2 [EG] [Ec]2 [Ec] | [Fd]2 [Ac] [GB]2 [FA] | %4
 [EG]3- [EG]2 [EG] | [EG]2 [DF] [B,D]2 [FA] | [FA]2 [EG] [CE]2 [Ec] | [DB]2 [DA] [Dc]2 [D^F] | %8
 [DG]3- [DG]2 [DG] | [DF]2 [DG] [FA]2 [FB] | [Ec]2 [Fd] [Ec]2 [EG] | [FA]2 [FB] [Fc]2 [Ad] | %12
 [^Ge]3- [Ge]2 [Ge] | [Ae]2 A [Fd]2 [Fd] | [Ed]2 [EG] [Ec]2 [Ec] | [DB]2 [Ec] [Fd]2 [Ge] | %16
 [Ec]3- [Ec]2 |] %17
V:2
 x | x6 | x6 | x6 | x6 | x6 | x6 | x6 | x6 | x6 | x6 | x6 | x6 | x2 A x3 | x6 | x6 | x5 |] %17
V:3
 [C,C] | [C,C]2 [C,C] [C,C]2 [C,C] | [C,C]2 [C,C] [C,G,]2 [C,G,] | [F,A,]2 [F,C] [F,C]2 [F,C] | %4
 [C,C]3- [C,C]2 [C,C] | G,2 G, G,2 G, | [C,C]2 [C,C] [C,G,]2 [C,G,] | %7
 [D,G,]2 [D,^F,] [D,A,]2 [D,C] | [G,B,]3- [G,B,]2 [G,B,] | [G,B,]2 [G,B,] [G,C]2 [G,D] | %10
 [C,C]2 [C,G,] [C,G,]2 [C,C] | [F,C]2 [F,A,] [F,A,]2 [F,A,] | [E,B,]3- [E,B,]2 [E,B,] | %13
 [A,C]2 [F,C] [F,A,]2 [F,A,] | [C,G,]2 [C,C] [C,G,]2 [C,G,] | G,2 G, [G,B,]2 [G,,G,] | %16
 [C,G,]3- [C,G,]2 |] %17
V:4
 x | x6 | x6 | x6 | x6 | G,2 G, G,2 G, | x6 | x6 | x6 | x6 | x6 | x6 | x6 | x6 | x6 | G,2 G, x3 | %16
 x5 |] %17

